X:1
T:Kashmir, 11.11.11.11 D
T:Kashmir, 11.11.11.11 D
T:Arranged by Livesey Carrott, 1893
T:Public Domain Courtesy of the Cyber Hymnal™
C:Arranged by Livesey Carrott, 1893
Z:Public Domain
Z:Courtesy of the Cyber Hymnal™
%%score ( 1 2 ) ( 3 4 )
L:1/8
Q:1/4=110
M:3/4
K:E
V:1 treble 
V:2 treble 
V:3 bass 
V:4 bass 
V:1
 B,2 | [B,E]2 [B,E]2 (GF) | [B,E]2 [B,E]2 ([EG][FA]) | [GB]2 [GB]2 [Ac]2 | F4 (FG) | A2 G2 F2 | %6
 B2 G2 E2 | [^A,E]2 [A,D]2 [A,E]2 | [B,F]4 B,2 | [B,E]2 [B,E]2 (GF) | [B,E]2 [B,E]2 ([EG][FA]) | %11
 [GB]2 [GB]2 [Ac]2 | F4 (FG) | A2 G2 F2 | B2 G2 E2 | [EG]2 [DG]2 [DF]2 | E4 [GB]2 | %17
 [Ac]2 [Ac]2 [Ae]2 | [GB]2 [EG]2 [GB]2 | [Ac]2 [Ac]2 [Ae]2 | [GB]4 [GB]2 | [F^A]2 [FA]2 [FA]2 | %22
 [Fe]2 [Fd]2 [Gc]2 | [FB]2 [FB]2 [F^A]2 | [FB]4 [FB]2 | [EG]2 E2 [EB]2 | [EA]2 F2 [Ac]2 x2 | %27
 [AB]2 [Gc]2 [Gd]2 | [Ge]4 [Ge]2 | [Ae]2 [Ec]2 [Ee]2 | [EB]2 [EG]2 E2 | [EG]2 [DG]2 [DF]2 | E4 |] %33
V:2
 B,2 | x4 B,2 | x6 | x6 | F4 FG | A2 G2 F2 | B2 G2 E2 | x6 | x4 B,2 | x4 B,2 | x6 | x6 | F4 FG | %13
 A2 G2 F2 | B2 G2 E2 | x6 | E4 x2 | x6 | x6 | x6 | x6 | x6 | x6 | x6 | x6 | x2 E2 x2 | x2 F2 x4 | %27
 x6 | x6 | x6 | x4 E2 | x6 | E4 |] %33
V:3
 B,2 | [E,G,]2 [E,G,]2 (B,A,) | [E,G,]2 [E,G,]2 [E,B,]2 | [E,E]2 [E,E]2 [A,E]2 | [B,D]4 F,G, | %5
 A,2 G,2 F,2 | B,2 G,2 E,2 | [C,F,]2 [C,F,]2 [C,F,]2 | [B,,D,]4 B,2 | [E,G,]2 [E,G,]2 (B,A,) | %10
 [E,G,]2 [E,G,]2 [E,B,]2 | [E,E]2 [E,E]2 [A,E]2 | [B,D]4 F,G, | A,2 G,2 F,2 | B,2 G,2 E,2 | %15
 [B,,B,]2 [B,,B,]2 [B,,A,]2 | [E,G,]4 [E,E]2 | [A,,A,E]2 [A,,A,E]2 [C,CE]2 | %18
 [E,E]2 [E,B,]2 [E,E]2 | [A,,A,E]2 [A,,A,E]2 [C,CE]2 | [E,E]4 [E,E]2 | [E,C]2 [E,C]2 [E,C]2 | %22
 [C,^A,]2 [D,B,]2 [E,E]2 | [F,D]2 [F,C]2 [F,C]2 | [B,,D]4 [D,B,]2 | [E,B,]2 [E,G,]2 [G,=D]2 | %26
 [A,C]2 [A,C]2 [F,D]2 [B,D]2 | [B,E]2 [^B,D]2 x2 | C4 [B,=D]2 | [A,C]2 [A,,A,]2 [A,,F,]2 | %30
 [B,,G,]2 [B,,B,]2 [B,,G,]2 | [B,,B,]2 [B,,A,]2 [B,,A,]2 | [E,G,]4 |] %33
V:4
 B,2 | x4 E,2 | x6 | x6 | x4 (F,G,) | A,2 G,2 F,2 | B,2 G,2 E,2 | x6 | x4 B,2 | x4 E,2 | x6 | x6 | %12
 x4 (F,G,) | A,2 G,2 F,2 | B,2 G,2 E,2 | x6 | x6 | x6 | x6 | x6 | x6 | x6 | x6 | x6 | x6 | x6 | %26
 x8 | x6 | C4 x2 | x6 | x6 | x6 | x4 |] %33

